public/svg/user_stories_1.svg

<svg width="112" height="63" viewBox="0 0 112 63" fill="none" xmlns="http://www.w3.org/2000/svg">
<path d="M85.3024 18H85.5709C85.8905 18.2032 86.0119 18.585 86.1879 18.9013C88.6124 23.4476 91.0405 27.9919 93.468 32.537C94.6412 34.7512 95.8384 36.9536 96.9995 39.1738V39.2171C96.9304 39.3422 96.8752 39.5388 96.6968 39.5213C95.5176 39.525 94.3366 39.5274 93.158 39.5202C92.8751 39.5316 92.7988 39.2226 92.6919 39.0235C92.4774 38.6159 92.2462 38.2185 92.0527 37.8001C91.7217 37.238 91.4611 36.6392 91.1301 36.0777C90.8759 35.5222 90.5473 35.007 90.2915 34.4526C90.1334 34.1171 89.9255 33.8081 89.7688 33.4721C89.5363 32.973 89.2353 32.5107 89.0095 32.0081C88.6689 31.4178 88.3871 30.7967 88.0466 30.2062C87.8075 29.6771 87.4891 29.1896 87.2476 28.6617C87.0788 28.2986 86.853 27.9649 86.6853 27.6007C86.4667 27.1281 86.1759 26.6933 85.9675 26.216C85.8635 26.0314 85.792 25.7747 85.5734 25.7008C85.4328 25.6894 85.2358 25.6539 85.1565 25.8048C84.789 26.3958 84.5198 27.0408 84.1655 27.6396C83.9119 28.1946 83.5809 28.7097 83.3262 29.2641C83.1749 29.5863 82.976 29.8833 82.8234 30.2043C82.7075 30.4455 82.5897 30.6859 82.4528 30.9162C82.2106 31.325 82.0377 31.7705 81.7926 32.1775C81.5787 32.5347 81.4268 32.9248 81.2134 33.282C80.9894 33.6505 80.8332 34.0544 80.6128 34.4243C80.3606 34.8451 80.1826 35.305 79.9297 35.7253C79.7165 36.0824 79.5652 36.472 79.3512 36.8291C79.1271 37.1977 78.971 37.6016 78.7506 37.9714C78.5132 38.3675 78.339 38.7968 78.1155 39.1997C78.0392 39.3193 77.966 39.4696 77.8158 39.5044C77.5852 39.5453 77.349 39.5212 77.116 39.5243C76.2143 39.5236 75.3126 39.5207 74.411 39.5273C74.2476 39.5243 74.0518 39.5267 73.94 39.386C73.9052 39.2327 73.9177 39.0667 74.0013 38.9316C77.6794 32.0328 81.3651 25.1386 85.0467 18.2411C85.1032 18.1354 85.2047 18.0656 85.3026 18L85.3024 18Z" fill="#1B2738"/>
<path d="M15.0002 21.3135C15.2525 21.0473 15.6351 21.1344 15.9612 21.1254C19.2454 21.1271 22.5287 21.1254 25.813 21.126C26.7789 21.0935 27.7568 21.2396 28.6634 21.5781C30.1892 22.1258 31.5022 23.3558 31.9961 24.9202C32.2147 25.5135 32.2622 26.1521 32.3061 26.7774C32.2658 27.4471 32.1847 28.1277 31.9318 28.7547C31.6284 29.4887 31.1905 30.1958 30.5376 30.6678C30.3802 30.8198 30.1362 30.8842 30.0215 31.0754C30.8902 31.3892 31.6375 31.9837 32.2009 32.7094C33.1272 33.9215 33.3849 35.5255 33.2276 37.0135C33.1447 37.9946 32.8629 38.9686 32.3511 39.8134C32.0094 40.3388 31.5877 40.8203 31.0759 41.1858C29.9585 42.0156 28.5757 42.3979 27.2102 42.5554C26.9304 42.5934 26.6432 42.5728 26.3686 42.6498H15.2505C15.158 42.5752 15.0721 42.4923 15 42.3972V21.3134L15.0002 21.3135ZM18.686 24.3959C18.5808 24.5245 18.6097 24.7001 18.6037 24.854C18.6132 26.4515 18.5893 28.0494 18.6156 29.6463C18.7135 29.7685 18.8637 29.852 19.0229 29.8435C21.1459 29.8453 23.2694 29.8411 25.3921 29.846C25.6877 29.8586 25.9784 29.7967 26.2699 29.7558C26.9306 29.6596 27.5908 29.398 28.0516 28.8991C28.3669 28.5853 28.5105 28.1499 28.6168 27.7291C28.6426 27.3883 28.7514 27.0461 28.6565 26.7058C28.6108 26.1299 28.3771 25.5702 27.9873 25.1427C27.4412 24.6473 26.7101 24.4104 25.9893 24.3232C25.7587 24.3004 25.5243 24.3348 25.2955 24.289C25.0108 24.2276 24.7194 24.2571 24.431 24.2536C22.6884 24.2517 20.9457 24.2554 19.2038 24.2512C19.0223 24.2512 18.8409 24.3011 18.6859 24.396L18.686 24.3959ZM18.8042 33.0498C18.7333 33.0721 18.6655 33.1141 18.6439 33.1905C18.5158 33.4382 18.5423 33.7232 18.5436 33.9925C18.546 35.6362 18.5418 37.28 18.5453 38.9235C18.5489 39.1586 18.6798 39.4917 18.9629 39.4628C21.2059 39.4639 23.4495 39.4615 25.6924 39.4635C25.9178 39.4712 26.1429 39.4635 26.3653 39.4226C27.1545 39.3552 27.9715 39.1971 28.6365 38.742C29.1711 38.3632 29.4649 37.7368 29.579 37.106C29.7304 36.378 29.6739 35.6162 29.4625 34.9056C29.2732 34.3573 28.8996 33.8578 28.3758 33.592C27.6838 33.2108 26.8898 33.0967 26.1141 33.0304C23.7504 33.0311 21.3867 33.0311 19.0227 33.0304C18.9495 33.0287 18.8762 33.0352 18.8041 33.0497L18.8042 33.0498Z" fill="#1B2738"/>
<path d="M36.8897 21.1424C37.1396 21.1015 37.3949 21.1304 37.6472 21.1256C41.1314 21.1249 44.616 21.1273 48.1009 21.1243C49.6759 21.2049 51.2762 21.7561 52.414 22.8805C53.279 23.736 53.8004 24.9101 53.9253 26.1143C53.9229 26.5911 53.9452 27.0691 53.9122 27.5452C53.7626 28.5673 53.3612 29.5965 52.5924 30.3119C52.375 30.5398 52.1389 30.7515 51.8626 30.9053C51.8055 30.9534 51.6847 30.9774 51.7202 31.0749C52.6044 31.4356 53.4028 32.0386 53.9524 32.8244C54.1885 33.1485 54.3584 33.514 54.5219 33.879C54.8468 34.613 54.9075 35.4253 54.955 36.2165C54.9148 36.8285 54.8781 37.4459 54.7322 38.0447C54.5195 39.0884 53.9771 40.0557 53.2196 40.8C52.9102 41.0556 52.5978 41.3117 52.2507 41.5149C51.2715 42.1148 50.132 42.3921 49.0037 42.5411C48.6891 42.5947 48.3647 42.5658 48.054 42.6493H36.9434C36.7704 42.5483 36.6029 42.3891 36.625 42.1695C36.6263 35.3151 36.6263 28.4603 36.625 21.6059C36.6178 21.4165 36.7308 21.2385 36.89 21.1424L36.8897 21.1424ZM40.612 24.2734C40.4966 24.3005 40.3711 24.3426 40.3092 24.4526C40.2017 24.6048 40.2323 24.7994 40.2281 24.9744C40.2336 26.4378 40.2299 27.9011 40.2292 29.3639C40.2191 29.5546 40.3459 29.7193 40.4911 29.828C40.9231 29.8661 41.3586 29.8324 41.7924 29.8431C43.6353 29.842 45.4777 29.8455 47.3208 29.842C47.939 29.7722 48.5787 29.6916 49.1212 29.3622C49.6799 29.1109 50.033 28.5667 50.2228 28.0033C50.3658 27.5477 50.3166 27.0662 50.319 26.5966C50.2781 26.2635 50.1719 25.9359 50.0204 25.6364C49.5873 24.8927 48.753 24.4827 47.9251 24.3618C47.5996 24.28 47.2614 24.3474 46.9345 24.28C46.6846 24.2315 46.4299 24.2555 46.1783 24.2531C44.3954 24.2512 42.6126 24.2549 40.83 24.2507C40.7561 24.2512 40.6835 24.2584 40.612 24.2735L40.612 24.2734ZM40.4911 33.0504C40.3122 33.0894 40.2215 33.2783 40.2311 33.449C40.2299 35.1732 40.2323 36.8969 40.2299 38.6206C40.2323 38.8401 40.2082 39.0691 40.2935 39.2778C40.3363 39.4251 40.5165 39.4586 40.6498 39.4617C42.9325 39.4647 45.2156 39.4593 47.4991 39.4647C47.8008 39.4798 48.0957 39.4022 48.3961 39.3884C49.1655 39.2922 49.9555 39.0704 50.5489 38.5473C51.0169 38.0753 51.2458 37.4146 51.2963 36.7618C51.3563 36.4383 51.3702 36.107 51.3035 35.7835C51.2452 35.0513 50.9894 34.2696 50.3826 33.8123C49.6486 33.2452 48.697 33.1142 47.8008 33.03C45.518 33.0306 43.2346 33.0306 40.9519 33.03C40.7982 33.0337 40.6419 33.0173 40.4911 33.0505L40.4911 33.0504Z" fill="#1B2738"/>
<path d="M55.0866 21.5822C54.9779 21.3622 55.1931 21.0975 55.4268 21.1246C56.5488 21.124 57.6716 21.1301 58.7942 21.1222C58.9247 21.1157 59.0688 21.1343 59.1385 21.2618C59.4046 21.6705 59.6197 22.1112 59.8335 22.5495C59.9687 22.8297 60.1416 23.0894 60.2769 23.3696C60.5261 23.9101 60.8488 24.4121 61.0956 24.9538C61.426 25.5158 61.6873 26.1146 62.0178 26.6763C62.3012 27.2834 62.6575 27.8523 62.9373 28.4612C63.1807 28.887 63.4017 29.324 63.6222 29.7622C63.9021 30.2161 64.098 30.714 64.3743 31.1703C64.5671 31.5058 64.7101 31.8671 64.9095 32.1989C65.1624 32.6192 65.3395 33.0798 65.5925 33.4993C65.843 33.9203 66.0131 34.3844 66.2827 34.7938C66.4035 35.021 66.7988 35.0217 66.9201 34.7938C67.1886 34.3837 67.3592 33.9203 67.6097 33.4993C67.8331 33.1314 67.9906 32.7279 68.2105 32.3576C68.4628 31.9368 68.6405 31.4769 68.8935 31.0561C69.1434 30.619 69.338 30.1518 69.6016 29.722C69.9092 29.0768 70.2805 28.4655 70.5839 27.8186C70.8327 27.3959 71.0422 26.9528 71.2693 26.5188C71.5349 26.0902 71.7186 25.6182 71.9787 25.1871C72.2034 24.8011 72.3681 24.3845 72.5957 24.0002C72.8263 23.619 72.9874 23.2013 73.2185 22.8201C73.5274 22.3 73.7268 21.7145 74.0921 21.2281C74.175 21.1 74.3377 21.1289 74.4686 21.1216C75.5709 21.1319 76.6738 21.1236 77.7761 21.1247C77.9258 21.1079 78.052 21.2078 78.1228 21.3322C78.193 21.5396 78.0424 21.7283 77.9473 21.8991C74.4423 28.4534 70.9474 35.0131 67.4436 41.5682C67.2429 41.9427 67.0735 42.3497 66.763 42.6497H66.4987C66.1003 42.4002 65.9663 41.9138 65.7387 41.528C62.1868 34.8805 58.6424 28.2272 55.0868 21.5822L55.0866 21.5822Z" fill="#1B2738"/>
</svg>

<svg xmlns="http://www.w3.org/2000/svg" width="112" height="63" fill="#1b2738"  xmlns:v="https://vecta.io/nano"><path d="M85.302 18h.268c.32.203.441.585.617.901l7.28 13.636L97 39.174v.043c-.069.125-.124.322-.303.304-1.179.004-2.36.006-3.539-.001-.283.011-.359-.298-.466-.497l-.639-1.223-.923-1.722-.839-1.625-.523-.98-.759-1.464-.963-1.802c-.239-.529-.558-1.017-.799-1.544-.169-.363-.395-.697-.562-1.061l-.718-1.385c-.104-.185-.175-.441-.394-.515-.141-.011-.338-.047-.417.104-.367.591-.637 1.236-.991 1.835l-.839 1.624c-.151.322-.35.619-.503.94a9.08 9.08 0 0 1-.371.712c-.242.409-.415.854-.66 1.261-.214.357-.366.747-.579 1.104-.224.369-.38.772-.601 1.142-.252.421-.43.881-.683 1.301-.213.357-.364.747-.578 1.104-.224.369-.38.773-.601 1.142-.237.396-.412.825-.635 1.228-.076.12-.15.27-.3.305-.231.041-.467.017-.7.02-.902-.001-1.803-.004-2.705.003-.163-.003-.359-.001-.471-.141-.035-.153-.022-.319.061-.454l11.045-20.691c.056-.106.158-.175.256-.241h0zM15 21.314c.252-.266.635-.179.961-.188l9.852.001a7.46 7.46 0 0 1 2.85.452c1.526.548 2.839 1.778 3.333 3.342.219.593.266 1.232.31 1.857-.04.67-.121 1.35-.374 1.977-.303.734-.741 1.441-1.394 1.913-.157.152-.401.216-.516.408.869.314 1.616.908 2.179 1.634.926 1.212 1.184 2.816 1.027 4.304-.083.981-.365 1.955-.876 2.8-.342.525-.763 1.007-1.275 1.372-1.117.83-2.5 1.212-3.866 1.37-.28.038-.567.017-.842.094H15.251c-.093-.075-.178-.157-.251-.253V21.314zm3.686 3.082c-.105.129-.076.304-.082.458l.012 4.792a.5.5 0 0 0 .407.197l6.369.003c.296.013.586-.049.878-.09.661-.096 1.321-.358 1.782-.857.315-.314.459-.749.565-1.17.026-.341.135-.683.04-1.023a2.64 2.64 0 0 0-.669-1.563c-.546-.495-1.277-.732-1.998-.82-.231-.023-.465.012-.694-.034-.285-.061-.576-.032-.864-.035-1.743-.002-3.485.002-5.227-.002a1 1 0 0 0-.518.145h0zm.118 8.654c-.071.022-.139.064-.16.141-.128.248-.102.533-.1.802l.002 4.931c.004.235.134.568.418.539l6.729.001a3.12 3.12 0 0 0 .673-.041c.789-.067 1.606-.226 2.271-.681.535-.379.828-1.005.942-1.636a4.52 4.52 0 0 0-.117-2.2c-.189-.548-.563-1.048-1.087-1.314-.692-.381-1.486-.495-2.262-.562h-7.091a.99.99 0 0 0-.219.019h0zM36.89 21.142c.25-.041.505-.012.758-.017l10.454-.001c1.575.081 3.175.632 4.313 1.756.865.855 1.386 2.03 1.511 3.234l-.013 1.431c-.15 1.022-.551 2.051-1.32 2.767-.217.228-.453.44-.73.593-.057.048-.178.072-.142.17.884.361 1.683.964 2.232 1.749.236.324.406.69.57 1.055.325.734.386 1.546.433 2.338-.04.612-.077 1.229-.223 1.828A5.41 5.41 0 0 1 53.22 40.8c-.309.256-.622.512-.969.715-.979.6-2.119.877-3.247 1.026-.315.054-.639.025-.95.108H36.943c-.173-.101-.34-.26-.318-.48V21.606c-.007-.189.106-.367.265-.463h0zm3.722 3.131c-.115.027-.241.069-.303.179-.107.152-.077.347-.081.522l.001 4.39c-.01.191.117.355.262.464.432.038.867.004 1.301.015l5.528-.001c.618-.07 1.258-.15 1.8-.48.559-.251.912-.796 1.102-1.359.143-.456.094-.937.096-1.407-.041-.333-.147-.661-.299-.96-.433-.744-1.267-1.154-2.095-1.275-.325-.082-.664-.014-.991-.082-.25-.049-.505-.024-.756-.027-1.783-.002-3.566.002-5.348-.002-.074.001-.146.008-.218.023h0zm-.121 8.777c-.179.039-.27.228-.26.399l-.001 5.172c.002.219-.022.448.064.657.043.147.223.181.356.184l6.849.003c.302.015.597-.062.897-.076.769-.096 1.559-.318 2.153-.841.468-.472.697-1.133.747-1.785.06-.324.074-.655.007-.978-.058-.732-.314-1.514-.921-1.971-.734-.567-1.686-.698-2.582-.782h-6.849c-.154.004-.31-.013-.461.02h0zm14.596-11.468c-.109-.22.107-.485.34-.458l3.367-.002c.131-.006.275.012.344.14.266.409.481.849.695 1.288l.443.82.819 1.584.922 1.723.919 1.785.685 1.301c.28.454.476.952.752 1.408l.535 1.029c.253.42.43.881.683 1.3l.69 1.294c.121.227.516.228.637 0 .268-.41.439-.873.69-1.294.223-.368.381-.771.601-1.142.252-.421.43-.881.683-1.301l.708-1.334.982-1.903.685-1.3c.266-.429.449-.901.709-1.332l.62-1.188c.231-.381.392-.799.623-1.18.309-.52.508-1.106.874-1.592.083-.128.246-.099.376-.107l3.308.003c.15-.017.276.083.347.207.07.207-.08.396-.175.567l-10.505 19.67c-.201.375-.37.782-.681 1.082h-.264c-.398-.25-.532-.736-.76-1.122L55.087 21.582z"/></svg>
